icons/sperm.svg

<svg width="48" height="48" viewBox="0 0 48 48" fill="none" xmlns="http://www.w3.org/2000/svg">
<path fill-rule="evenodd" clip-rule="evenodd" d="M31.1944 8.63197C34.1171 5.70918 38.6884 4.97894 41.3682 7.65868C44.0479 10.3384 43.3177 14.9097 40.3949 17.8325C38.097 20.1303 34.876 21.0388 32.2701 20.1C32.2098 20.0782 32.1561 20.0763 32.1223 20.0819C32.1065 20.0846 32.0985 20.0879 32.0954 20.0896L32.0724 20.1127C31.2187 21.0226 30.0148 21.5302 28.7741 21.4838L25.7607 21.3713C24.1519 21.3113 22.9542 22.949 23.4782 24.4296L23.7342 25.1528C25.1812 29.2416 21.9061 33.5852 17.573 33.3839L15.7372 33.2986C15.4762 33.2865 15.2541 33.5454 15.3023 33.7975L15.5927 35.3195C16.1569 38.2755 14.0482 41.1427 11.0604 41.5255L9.69548 41.7004C8.36138 41.8713 7.15233 40.8997 7.03209 39.5601C6.91813 38.2904 7.8283 37.1578 9.09275 36.9958L10.5609 36.8077C10.8054 36.7764 10.9733 36.5314 10.9314 36.3115L10.6409 34.7895C10.0105 31.4863 12.7012 28.3913 16.0604 28.5473L17.8962 28.6326C18.8508 28.677 19.5657 27.6987 19.258 26.8295L19.0021 26.1062C17.3445 21.4227 21.071 16.4327 26.041 16.6182L28.8211 16.722L28.8545 16.6886C28.8561 16.6857 28.8592 16.6785 28.8619 16.6643C28.8677 16.6338 28.8676 16.5847 28.8497 16.5278C28.0433 13.9645 28.9609 10.8654 31.1944 8.63197ZM28.8535 16.69L28.8545 16.6886L28.8535 16.69ZM39.9539 9.07289C38.3334 7.45238 35.0611 7.59365 32.6086 10.0462C30.7936 11.8612 30.2174 14.2107 30.7575 15.9277C30.9713 16.6073 30.8912 17.4781 30.2722 18.0993L30.0973 18.2748C29.8108 18.5738 29.406 18.7453 28.9798 18.7294L25.9664 18.6169C22.384 18.4831 19.709 22.1091 20.8875 25.439L21.1434 26.1622C21.9325 28.3917 20.1536 30.7396 17.8034 30.6305L15.9676 30.5452C13.8965 30.449 12.218 32.3848 12.6054 34.4146L12.8959 35.9366C13.157 37.3046 12.1867 38.6158 10.815 38.7915L9.3469 38.9796C9.14882 39.0049 9.00623 39.1824 9.02408 39.3813C9.04292 39.5911 9.23233 39.7434 9.44132 39.7166L10.8063 39.5417C12.6669 39.3033 13.9732 37.5022 13.6282 35.6944L13.3377 34.1724C13.0466 32.6469 14.2809 31.2288 15.83 31.3008L17.6658 31.3861C20.6032 31.5225 22.8144 28.5485 21.8487 25.8201L21.5928 25.0968C20.5897 22.2625 22.8389 19.2608 25.8353 19.3727L28.8487 19.4852C29.4991 19.5095 30.1518 19.2409 30.6206 18.737L30.6323 18.7245L30.6798 18.6768C31.3299 18.0245 32.2504 17.967 32.948 18.2184C34.676 18.8409 37.1092 18.2897 38.9807 16.4183C41.4332 13.9657 41.5745 10.6934 39.9539 9.07289Z" fill="black"/>
</svg>

<svg
  xmlns="http://www.w3.org/2000/svg"
  width="24"
  height="24"
  viewBox="0 0 24 24"
  fill="none"
  stroke="currentColor"
  stroke-width="2"
  stroke-linecap="round"
  stroke-linejoin="round"
>
  <path
    fill-rule="evenodd"
    d="M31.194 8.632c2.923-2.923 7.494-3.653 10.174-.973s1.95 7.25-.973 10.174c-2.298 2.297-5.519 3.206-8.125 2.267a.3.3 0 0 0-.148-.018.1.1 0 0 0-.027.008l-.023.023a4.32 4.32 0 0 1-3.298 1.37l-3.013-.112c-1.61-.06-2.807 1.578-2.283 3.059l.256.723c1.447 4.089-1.828 8.432-6.161 8.23l-1.836-.084a.435.435 0 0 0-.435.498l.29 1.523c.565 2.956-1.544 5.823-4.532 6.206l-1.365.174a2.372 2.372 0 0 1-.602-4.704l1.468-.188a.437.437 0 0 0 .37-.496l-.29-1.523c-.63-3.303 2.06-6.398 5.42-6.242l1.835.086c.955.044 1.67-.934 1.362-1.803l-.256-.724c-1.657-4.683 2.069-9.673 7.039-9.488l2.78.104.034-.033.007-.025a.3.3 0 0 0-.012-.136c-.807-2.563.11-5.663 2.344-7.896m-2.34 8.058v-.001zm11.1-7.617c-1.62-1.62-4.893-1.48-7.345.973-1.815 1.815-2.392 4.165-1.852 5.882.214.68.134 1.55-.485 2.171l-.175.176c-.286.299-.691.47-1.117.454l-3.014-.112c-3.582-.134-6.257 3.492-5.079 6.822l.256.723c.79 2.23-.99 4.578-3.34 4.469l-1.835-.086c-2.072-.096-3.75 1.84-3.363 3.87l.29 1.522c.262 1.368-.708 2.679-2.08 2.855l-1.468.188a.371.371 0 1 0 .094.737l1.365-.175c1.86-.239 3.167-2.04 2.822-3.848l-.29-1.522c-.291-1.525.943-2.943 2.492-2.871l1.836.085c2.937.137 5.148-2.837 4.183-5.566l-.256-.723c-1.003-2.835 1.246-5.836 4.242-5.724l3.014.112a2.32 2.32 0 0 0 1.772-.748l.011-.012.048-.048c.65-.652 1.57-.71 2.268-.459 1.728.623 4.161.072 6.033-1.8 2.452-2.452 2.593-5.725.973-7.345"
    clip-rule="evenodd"
  />
</svg>
